!!!COM: Corelli, Arcangelo
!!!OTL: 
!!!ONM: Opus 6, No. 10
!!!OMV: 4
!!!CDT: 1653/2/17/-1713/1/8/
!!!OCY: Italia
**kern	**kern	**kern	**kern	**kern	**kern	**kern
*clefC	*clefG	*clefG	*clefG	*clefC	*clefG	*clefG
*k[]	*k[]	*k[]	*k[]	*k[]	*k[]	*k[]
*C:	*C:	*C:	*C:	*C:	*C:	*C:
*M3/4	*M3/4	*M3/4	*M3/4	*M3/4	*M3/4	*M3/4
=1	=1	=1	=1	=1	=1	=1
2.r	2.r	2.r	2.r	8c	4r	2.cc
.	.	.	.	8C	.	.
.	.	.	.	8E	[2cc	.
.	.	.	.	8G	.	.
.	.	.	.	8E	.	.
.	.	.	.	8C	.	.
=2	=2	=2	=2	=2	=2	=2
2.r	2.r	2.r	2.r	8F	4cc]	2.dd
.	.	.	.	8D	.	.
.	.	.	.	8G	2b	.
.	.	.	.	8F	.	.
.	.	.	.	8G	.	.
.	.	.	.	8GG	.	.
=3	=3	=3	=3	=3	=3	=3
2C	2.r	4r	2.r	8r	4cc	4ee
.	.	.	.	8C	.	.
.	.	4e	.	8E	4g	4cc
.	.	.	.	8G	.	.
4r	.	4c	.	8E	[4cc	4ee
.	.	.	.	8C	.	.
=4	=4	=4	=4	=4	=4	=4
2G	4r	2g	4r	8GG	4cc]	4dd
.	.	.	.	8G	.	.
.	4d	.	4b	8B	2b	4g
.	.	.	.	8d	.	.
4r	4d	4r	4g	8B	.	[4gg
.	.	.	.	8G	.	.
=5	=5	=5	=5	=5	=5	=5
2D	2d	4r	2dd	8d	4a	4gg]
.	.	.	.	8D	.	.
.	.	4f	.	8F	4d	2ff
.	.	.	.	8A	.	.
4r	4r	4d	4r	8F	[4dd	.
.	.	.	.	8D	.	.
=6	=6	=6	=6	=6	=6	=6
2A	4r	2a	4r	8AA	4dd]	4ee
.	.	.	.	8A	.	.
.	4e	.	4cc	8c	2cc	4a
.	.	.	.	8e	.	.
4r	4e	4r	4a	8c	.	[4aa
.	.	.	.	8A	.	.
=7	=7	=7	=7	=7	=7	=7
2E	2e	4r	2ee	8e	4b	4aa]
.	.	.	.	8E	.	.
.	.	[2ee	.	8G	4e	2gg
.	.	.	.	8B	.	.
4r	4r	.	4gg	8G	[4ee	.
.	.	.	.	8E	.	.
=8	=8	=8	=8	=8	=8	=8
4AA	4r	4ee]	2.ff	8A	4ee]	4.ff
.	.	.	.	8c	.	.
4BB	4g	8dd	.	8B	8dd	.
.	.	8cc	.	8A	8cc	8aa
4GG	4g	[4dd	.	8B	[4dd	8gg
.	.	.	.	8G	.	8ff
=9	=9	=9	=9	=9	=9	=9
2C	2g	4dd]	2ee	8c	4dd]	2ee
.	.	.	.	8B	.	.
.	.	4g	.	8c	4g	.
.	.	.	.	8d	.	.
4E	4c	[4gg	4gg	8e	[4gg	4gg
.	.	.	.	8E	.	.
=10	=10	=10	=10	=10	=10	=10
2F	4c	4gg]	2aa	8F	4gg]	2aa
.	.	.	.	8E	.	.
.	2f	4cc	.	8F	4cc	.
.	.	.	.	8G	.	.
4F	.	4ff	4aa	8A	4ff	4aa
.	.	.	.	8F	.	.
=11	=11	=11	=11	=11	=11	=11
2G	2d	2ff	2bb	8G	2ff	2bb
.	.	.	.	8A	.	.
.	.	.	.	8B	.	.
.	.	.	.	8G	.	.
4A	4c	4ee	[4ccc	8c	4ee	[4ccc
.	.	.	.	8E	.	.
=12	=12	=12	=12	=12	=12	=12
4F	4A	4aa	4ccc]	8F	4aa	4ccc]
.	.	.	.	8D	.	.
4G	2G	4.dd	2bb	8G	4.dd	2bb
.	.	.	.	8F	.	.
4GG	.	.	.	8G	.	.
.	.	8gg	.	8GG	8gg	.
=13	=13	=13	=13	=13	=13	=13
2C	2G	2ee	2ccc	8C	4ee	2ccc
.	.	.	.	8BB	.	.
.	.	.	.	8C	[2cc	.
.	.	.	.	8D	.	.
4r	4r	4r	4r	8E	.	4cc
.	.	.	.	8C	.	.
=14	=14	=14	=14	=14	=14	=14
2r	2r	2r	2r	8G	4cc]	4dd
.	.	.	.	8F	.	.
.	.	.	.	8G	2b	4g
.	.	.	.	8A	.	.
4G	4g	4b	4gg	8B	.	4gg
.	.	.	.	8G	.	.
=15	=15	=15	=15	=15	=15	=15
2C	2g	2cc	2ee	8c	2cc	4ee
.	.	.	.	8B	.	.
.	.	.	.	8c	.	4cc
.	.	.	.	8d	.	.
4r	4r	4r	4r	8e	4b	[4gg
.	.	.	.	8B	.	.
=16	=16	=16	=16	=16	=16	=16
2r	2r	2r	2r	8c	4a	4gg]
.	.	.	.	8A	.	.
.	.	.	.	8d	4d	2ff#
.	.	.	.	8c	.	.
4D	4d	4dd	4ff#	8d	4dd	.
.	.	.	.	8D	.	.
=17	=17	=17	=17	=17	=17	=17
2.GG	2d	2.b	2.gg	8G	4b	4gg
.	.	.	.	8B	.	.
.	.	.	.	8d	4g	4b
.	.	.	.	8B	.	.
.	4r	.	.	8G	4r	4ee
.	.	.	.	8e	.	.
=18	=18	=18	=18	=18	=18	=18
2F#	4r	4r	4r	8F#	4r	4ee
.	.	.	.	8A	.	.
.	2f#	2dd	2a	8d	4aa	4dd
.	.	.	.	8A	.	.
4r	.	.	.	8F#	4dd	4r
.	.	.	.	8d	.	.
=19	=19	=19	=19	=19	=19	=19
2E	4r	4r	4r	8E	2gg	4r
.	.	.	.	8G	.	.
.	2e	2cc	2g	8c	.	4g
.	.	.	.	8G	.	.
4r	.	.	.	8E	4r	4cc
.	.	.	.	8c	.	.
=20	=20	=20	=20	=20	=20	=20
2D	4r	4r	4r	8D	4r	4cc
.	.	.	.	8F#	.	.
.	2d	2b	2f#	8B	4ff#	4b
.	.	.	.	8F#	.	.
4r	.	.	.	8D	4b	4r
.	.	.	.	8B	.	.
=21	=21	=21	=21	=21	=21	=21
2C	4r	4r	4r	8C	2ee	4r
.	.	.	.	8E	.	.
.	2c	2a	2e	8A	.	4e
.	.	.	.	8E	.	.
4r	.	.	.	8C	4r	4a
.	.	.	.	8A	.	.
=22	=22	=22	=22	=22	=22	=22
2BB	4r	4r	4r	8BB	4r	4d
.	.	.	.	8D	.	.
.	2B	2g	2d	8G	4dd	4b
.	.	.	.	8D	.	.
4r	.	.	.	8BB	4g	4dd
.	.	.	.	8G	.	.
=23	=23	=23	=23	=23	=23	=23
2AA	2c	4.cc	2f#	2AA	4.cc	2f#
.	.	8dd	.	.	8dd	.
4GG	4d	[4b	[4g	4GG	[4b	[4g
=24	=24	=24	=24	=24	=24	=24
4C	4e	8b]	4g]	4C	8b]	4g]
.	.	8a	.	.	8a	.
4D	4.A	2a	4.g	4D	2a	4.g
4DD	.	.	.	4DD	.	.
.	8d	.	8f#	.	.	8f#
=25	=25	=25	=25	=25	=25	=25
2.GG	2B	2.g	2.g	8G	4g	2g
.	.	.	.	8B	.	.
.	.	.	.	8d	4b	.
.	.	.	.	8B	.	.
.	4r	.	.	8G	4ee	4r
.	.	.	.	8e	.	.
=26	=26	=26	=26	=26	=26	=26
2F#	4r	4r	4r	8F#	4ee	4r
.	.	.	.	8A	.	.
.	2f#	2a	2dd	8d	4dd	4aa
.	.	.	.	8A	.	.
4r	.	.	.	8F#	4r	4dd
.	.	.	.	8d	.	.
=27	=27	=27	=27	=27	=27	=27
2E	4r	4r	4r	8E	4r	2gg
.	.	.	.	8G	.	.
.	2e	2g	2cc	8c	4g	.
.	.	.	.	8G	.	.
4r	.	.	.	8E	4cc	4r
.	.	.	.	8c	.	.
=28	=28	=28	=28	=28	=28	=28
2D	4r	4r	4r	8D	4cc	4r
.	.	.	.	8F#	.	.
.	2d	2f#	2b	8B	4b	4ff#
.	.	.	.	8F#	.	.
4r	.	.	.	8D	4r	4b
.	.	.	.	8B	.	.
=29	=29	=29	=29	=29	=29	=29
2C	4r	4r	4r	8C	4r	2ee
.	.	.	.	8E	.	.
.	2c	2e	2a	8A	4e	.
.	.	.	.	8E	.	.
4r	.	.	.	8C	4a	4r
.	.	.	.	8A	.	.
=30	=30	=30	=30	=30	=30	=30
2BB	4r	4r	4r	8BB	4d	4r
.	.	.	.	8D	.	.
.	2B	2d	2g	8G	4b	4dd
.	.	.	.	8D	.	.
4r	.	.	.	8BB	4dd	4g
.	.	.	.	8G	.	.
=31	=31	=31	=31	=31	=31	=31
2AA	2c	2f#	4.cc	2AA	2f#	4.cc
.	.	.	8dd	.	.	8dd
4GG	4d	[4g	[4b	4GG	[4g	[4b
=32	=32	=32	=32	=32	=32	=32
4C	4e	4g]	8b]	4C	4g]	8b]
.	.	.	8a	.	.	8a
4D	4.A	4.g	2a	4D	4.g	2a
4DD	.	.	.	4DD	.	.
.	8d	8f#	.	.	8f#	.
=33	=33	=33	=33	=33	=33	=33
2.GG	2.B	2.g	2.g	2.GG	2.g	2.g
=34	=34	=34	=34	=34	=34	=34
2.r	2.r	2.r	2.r	8G	4b	2dd
.	.	.	.	8B	.	.
.	.	.	.	8d	4g	.
.	.	.	.	8B	.	.
.	.	.	.	8G	4b	4r
.	.	.	.	8d	.	.
=35	=35	=35	=35	=35	=35	=35
2.r	2.r	2.r	2.r	8F#	2a	4dd
.	.	.	.	8A	.	.
.	.	.	.	8d	.	4a
.	.	.	.	8A	.	.
.	.	.	.	8F#	4r	4dd
.	.	.	.	8d	.	.
=36	=36	=36	=36	=36	=36	=36
2G	2g	2b	2dd	8G	4dd	2b
.	.	.	.	8B	.	.
.	.	.	.	8d	4g	.
.	.	.	.	8B	.	.
4r	4r	4r	4r	8G	4b	4r
.	.	.	.	8B	.	.
=37	=37	=37	=37	=37	=37	=37
2F#	2d	2a	2dd	8F#	2a	4dd
.	.	.	.	8A	.	.
.	.	.	.	8d	.	4a
.	.	.	.	8A	.	.
4r	4r	4r	4r	8F#	4r	4dd
.	.	.	.	8d	.	.
=38	=38	=38	=38	=38	=38	=38
2G	2d	2b	2dd	8G	4dd	2b
.	.	.	.	8B	.	.
.	.	.	.	8d	4g	.
.	.	.	.	8B	.	.
4r	4r	4r	4r	8G	4b	4r
.	.	.	.	8B	.	.
=39	=39	=39	=39	=39	=39	=39
2.r	2.r	2.r	2.r	8G#	2e	4ee
.	.	.	.	8B	.	.
.	.	.	.	8e	.	4b
.	.	.	.	8B	.	.
.	.	.	.	8G#	4r	4ee
.	.	.	.	8e	.	.
=40	=40	=40	=40	=40	=40	=40
2A	2a	2cc	2ee	8A	4ee	2cc
.	.	.	.	8c	.	.
.	.	.	.	8e	4a	.
.	.	.	.	8c	.	.
4r	4r	4r	4r	8A	4cc	4r
.	.	.	.	8e	.	.
=41	=41	=41	=41	=41	=41	=41
2G#	2e	2b	2ee	8G#	2b	4ee
.	.	.	.	8B	.	.
.	.	.	.	8e	.	4b
.	.	.	.	8B	.	.
4r	4r	4r	4r	8G#	4r	4ee
.	.	.	.	8e	.	.
=42	=42	=42	=42	=42	=42	=42
4A	4e	4e	4cc	8A	4e	4cc
.	.	.	.	8c	.	.
2AA	2c	4a	4a	8f	4a	4a
.	.	.	.	8c	.	.
.	.	4cc	[4ff	8A	4cc	[4ff
.	.	.	.	8f	.	.
=43	=43	=43	=43	=43	=43	=43
4G	4r	2b	4ff]	8G	2b	4ff]
.	.	.	.	8B	.	.
2GG	4g	.	4b	8e	.	4b
.	.	.	.	8B	.	.
.	4e	4b	[4ee	8G	4b	[4ee
.	.	.	.	8e	.	.
=44	=44	=44	=44	=44	=44	=44
4F	4r	2a	4ee]	8F	2a	4ee]
.	.	.	.	8A	.	.
2FF	4f	.	4a	8d	.	4a
.	.	.	.	8A	.	.
.	4d	4a	4dd	8F	4a	4dd
.	.	.	.	8d	.	.
=45	=45	=45	=45	=45	=45	=45
4.E	2B	4g#	4.dd	4.E	4g#	4.dd
.	.	4e	.	.	4e	.
8G#	.	.	8ee	8G#	.	8ee
4A	4A	[4a	[4cc	4A	[4a	[4cc
=46	=46	=46	=46	=46	=46	=46
4D	4f	4a]	8cc]	4D	4a]	8cc]
.	.	.	8b	.	.	8b
4E	4.B	2g#	2b	4E	2g#	2b
4EE	.	.	.	4EE	.	.
.	8e	.	.	.	.	.
=47	=47	=47	=47	=47	=47	=47
2AA	2e	2a	2a	8A	4a	2a
.	.	.	.	8G#	.	.
.	.	.	.	8A	4cc	.
.	.	.	.	8B	.	.
4r	4r	4r	4r	8A	4ee	4r
.	.	.	.	8G	.	.
=48	=48	=48	=48	=48	=48	=48
2.r	2.r	2.r	2.r	8F#	2a	4dd
.	.	.	.	8d	.	.
.	.	.	.	8c	.	4a
.	.	.	.	8d	.	.
.	.	.	.	8F#	4r	4dd
.	.	.	.	8d	.	.
=49	=49	=49	=49	=49	=49	=49
2.r	2.r	2.r	2.r	8G	4dd	2b
.	.	.	.	8F#	.	.
.	.	.	.	8G	4b	.
.	.	.	.	8A	.	.
.	.	.	.	8G	4dd	4r
.	.	.	.	8F	.	.
=50	=50	=50	=50	=50	=50	=50
2.r	2.r	2.r	2.r	8E	2g	4cc
.	.	.	.	8c	.	.
.	.	.	.	8B	.	4g
.	.	.	.	8c	.	.
.	.	.	.	8E	4r	4cc
.	.	.	.	8c	.	.
=51	=51	=51	=51	=51	=51	=51
4F	4f	4cc	2a	8F	4cc	2a
.	.	.	.	8A	.	.
2FF	2a	2ff	.	8d	2ff	.
.	.	.	.	8A	.	.
.	.	.	4dd	8F	.	4dd
.	.	.	.	8d	.	.
=52	=52	=52	=52	=52	=52	=52
4G	4g	4dd	2b	8G	4dd	2b
.	.	.	.	8B	.	.
2GG	2b	2gg	.	8e	2gg	.
.	.	.	.	8B	.	.
.	.	.	4ee	8G	.	4ee
.	.	.	.	8e	.	.
=53	=53	=53	=53	=53	=53	=53
4A	4a	4ee	2cc	8A	4ee	2cc
.	.	.	.	8c	.	.
2AA	2cc	2aa	.	8f	2aa	.
.	.	.	.	8c	.	.
.	.	.	4ff	8A	.	4ff
.	.	.	.	8f	.	.
=54	=54	=54	=54	=54	=54	=54
4B	4dd	4gg	2dd	8B	4gg	2dd
.	.	.	.	8d	.	.
2G	2g	4.bb	.	8g	4.bb	.
.	.	.	.	8d	.	.
.	.	.	4gg	8B	.	4gg
.	.	16aa	.	8g	16aa	.
.	.	16bb	.	.	16bb	.
=55	=55	=55	=55	=55	=55	=55
2.c	2g	2.ccc	2.ee	8c	4ccc	4ee
.	.	.	.	8e	.	.
.	.	.	.	8g	4ee	4cc
.	.	.	.	8e	.	.
.	4r	.	.	8c	4aa	4r
.	.	.	.	8a	.	.
=56	=56	=56	=56	=56	=56	=56
2B	4r	4r	4r	8B	4aa	4r
.	.	.	.	8d	.	.
.	2b	2dd	2gg	8g	4gg	4dd
.	.	.	.	8d	.	.
4r	.	.	.	8B	4r	4gg
.	.	.	.	8g	.	.
=57	=57	=57	=57	=57	=57	=57
2A	4r	4r	4r	8A	4r	2cc
.	.	.	.	8c	.	.
.	2a	2cc	2ff	8f	4cc	.
.	.	.	.	8c	.	.
4r	.	.	.	8A	4ff	4r
.	.	.	.	8f	.	.
=58	=58	=58	=58	=58	=58	=58
2G	4r	4r	4r	8G	4ff	4r
.	.	.	.	8B	.	.
.	2g	2b	2ee	8e	4ee	4b
.	.	.	.	8B	.	.
4r	.	.	.	8G	4r	4ee
.	.	.	.	8e	.	.
=59	=59	=59	=59	=59	=59	=59
2F	4r	4r	4r	8F	4r	2a
.	.	.	.	8A	.	.
.	2f	2a	2dd	8d	4a	.
.	.	.	.	8A	.	.
4r	.	.	.	8F	4dd	4r
.	.	.	.	8d	.	.
=60	=60	=60	=60	=60	=60	=60
2E	4r	4r	4r	8E	4g	4r
.	.	.	.	8G	.	.
.	2e	2g	2cc	8c	4ee	4gg
.	.	.	.	8G	.	.
4r	.	.	.	8E	4gg	4cc
.	.	.	.	8c	.	.
=61	=61	=61	=61	=61	=61	=61
2D	2f	2b	4.ff	2D	2b	4.ff
.	.	.	8gg	.	.	8gg
4C	4g	[4cc	[4ee	4C	[4cc	[4ee
=62	=62	=62	=62	=62	=62	=62
4F	4a	4cc]	8ee]	4F	4cc]	8ee]
.	.	.	8dd	.	.	8dd
4G	4.d	4.cc	2dd	4G	4.cc	2dd
4GG	.	.	.	4GG	.	.
.	8g	8b	.	.	8b	.
=63	=63	=63	=63	=63	=63	=63
2.C	2e	2.cc	2.cc	8c	2cc	4cc
.	.	.	.	8e	.	.
.	.	.	.	8g	.	4ee
.	.	.	.	8e	.	.
.	4r	.	.	8c	4r	4aa
.	.	.	.	8a	.	.
=64	=64	=64	=64	=64	=64	=64
2B	4r	4r	4r	8B	4r	4aa
.	.	.	.	8d	.	.
.	2b	2gg	2dd	8g	4dd	4gg
.	.	.	.	8d	.	.
4r	.	.	.	8B	4gg	4r
.	.	.	.	8g	.	.
=65	=65	=65	=65	=65	=65	=65
2A	4r	4r	4r	8A	2cc	4r
.	.	.	.	8c	.	.
.	2a	2ff	2cc	8f	.	4cc
.	.	.	.	8c	.	.
4r	.	.	.	8A	4r	4ff
.	.	.	.	8f	.	.
=66	=66	=66	=66	=66	=66	=66
2G	4r	4r	4r	8G	4r	4ff
.	.	.	.	8B	.	.
.	2g	2ee	2b	8e	4b	4ee
.	.	.	.	8B	.	.
4r	.	.	.	8G	4dd	4r
.	.	.	.	8e	.	.
=67	=67	=67	=67	=67	=67	=67
2F	4r	4r	4r	8F	2a	4r
.	.	.	.	8A	.	.
.	2f	2dd	2a	8d	.	4a
.	.	.	.	8A	.	.
4r	.	.	.	8F	4r	4dd
.	.	.	.	8d	.	.
=68	=68	=68	=68	=68	=68	=68
2E	4r	4r	4r	8E	4r	4g
.	.	.	.	8G	.	.
.	2e	2cc	2g	8c	4gg	4ee
.	.	.	.	8G	.	.
4r	.	.	.	8E	4cc	4gg
.	.	.	.	8c	.	.
=69	=69	=69	=69	=69	=69	=69
2D	2f	4.ff	2b	2D	4.ff	2b
.	.	8gg	.	.	8gg	.
4C	4g	[4ee	[4cc	4C	[4ee	[4cc
=70	=70	=70	=70	=70	=70	=70
4F	4a	8ee]	4cc]	4F	8ee]	4cc]
.	.	8dd	.	.	8dd	.
4G	4.d	2dd	4.cc	4G	2dd	4.cc
4GG	.	.	.	4GG	.	.
.	8g	.	8b	.	.	8b
=71	=71	=71	=71	=71	=71	=71
2C	2e	2cc	2cc	2C	2cc	2cc
4E	4g	[4c	4g	4E	[4c	4g
=72	=72	=72	=72	=72	=72	=72
4F	4a	4c]	8f	4F	4c]	8f
.	.	.	8e	.	.	8e
4G	4.g	4.c	2d	4G	4.c	2d
4GG	.	.	.	4GG	.	.
.	8g	8B	.	.	8B	.
=73	=73	=73	=73	=73	=73	=73
2.C	2.e	2.c	2.c	2.C	2.c	2.c
==	==	==	==	==	==	==
*-	*-	*-	*-	*-	*-	*-
!!!RWG: This file only contains pitch and duration data.
!!!RWG: Transposing instruments are not transposed.
!!!RWG: Durations of rests and tied notes may be interpreted.
!!!RWG: Key is interpreted using the Humdrum key tool.
!!!SCA: 
!!!YOR: Chrysander Edition
!!!AGN: concerto grosso
!!!AFT: stage1
!!!ENC: F. Bennion
!!!END: 1997/04/15
!!!AST: baroque
!!!YEC: Copyright 1994, Center for Computer Assisted Research in the Humanities
!!!YEM: Rights to all derivative electronic formats reserved.
!!!YEM: Refer to licensing agreement for further details.
!!!YEN: United States of America
!!!EED: W.B. Hewlett
!!!KEY: 1370554399
!!!EMD: Converted from MuseData to Humdrum Aug 2, 1999, by Bret Aarden using muse2kern.
!!!VTS: 2138454184
